TV/Source/CGTN.svg

<svg height="2.20592mm" viewBox="0 0 8.2857265 2.2059195" width="8.285727mm" xmlns="http://www.w3.org/2000/svg" xmlns:xlink="http://www.w3.org/1999/xlink"><clipPath id="a"><path d="m898.018 105.421h23.81v6.576h-23.81z"/></clipPath><g clip-path="url(#a)" fill="#bead61" transform="matrix(.35277777 0 0 -.35277777 -316.85783 39.452973)"><g transform="translate(920.2828 111.7602)"><path d="m0 0v-3.782l-3.159 3.711c-.039.045-.095.071-.155.071h-1.092v-6.103h1.381v3.845l3.18-3.774c.038-.045.094-.071.152-.071h1.077v6.103z" fill="#bead61"/></g><g transform="translate(902.4497 106.9855)"><path d="m0 0c-.268-.086-.554-.13-.85-.13-.383 0-.731.079-1.035.235-.298.153-.533.373-.697.653-.165.282-.248.606-.248.963 0 .349.084.671.25.955.166.283.401.506.7.662.304.158.65.238 1.03.238.307 0 .606-.044.889-.13.183-.057.371-.134.579-.236.013-.007.009-.005.023-.012l.565 1.1-.084.042c-.368.184-.716.316-1.036.393s-.652.116-.985.116c-.633 0-1.212-.132-1.719-.394-.512-.263-.92-.644-1.212-1.131s-.44-1.043-.44-1.653c0-.57.144-1.103.427-1.583.285-.48.681-.854 1.178-1.109.492-.254 1.057-.382 1.68-.382.425 0 .803.044 1.124.13.319.085.673.23 1.052.431l.067.036-.423 1.175c-.327-.171-.609-.297-.835-.369" fill="#bead61"/></g><g transform="translate(909.5425 108.7562)"><path d="m0 0-.926-.001v.001h-.326v-.225-1.45c-.214-.103-.412-.158-.538-.183-.148-.028-.307-.042-.472-.042-.592 0-1.073.168-1.43.501-.359.334-.533.764-.533 1.316 0 .361.083.692.247.984.163.289.395.514.691.668.301.157.652.236 1.042.236.529 0 1.072-.12 1.62-.354l.563 1.1-.081.037c-.707.325-1.431.491-2.151.491-.628 0-1.206-.134-1.719-.399-.517-.266-.926-.645-1.216-1.127-.289-.481-.436-1.026-.436-1.619 0-.585.145-1.123.432-1.599s.692-.851 1.203-1.114c.508-.262 1.081-.395 1.703-.395.437 0 .863.059 1.267.174.408.116.763.281 1.056.489l.064.046v2.404c0 .034-.027.061-.06.061" fill="#bead61"/></g><g transform="translate(914.8377 111.7602)"><path d="m0 0h-4.921v-1.182h1.987v-4.921h1.426v4.921h1.946v.792.329.061h-.061z" fill="#bead61"/></g></g></svg>

<?xml version="1.0" encoding="UTF-8" standalone="no"?>
<!-- Created with Inkscape (http://www.inkscape.org/) -->

<svg
   xmlns:dc="http://purl.org/dc/elements/1.1/"
   xmlns:cc="http://creativecommons.org/ns#"
   xmlns:rdf="http://www.w3.org/1999/02/22-rdf-syntax-ns#"
   xmlns:svg="http://www.w3.org/2000/svg"
   xmlns="http://www.w3.org/2000/svg"
   xmlns:sodipodi="http://sodipodi.sourceforge.net/DTD/sodipodi-0.dtd"
   xmlns:inkscape="http://www.inkscape.org/namespaces/inkscape"
   width="8.2857265mm"
   height="2.2059195mm"
   viewBox="0 0 8.2857265 2.2059195"
   version="1.1"
   id="svg96839"
   inkscape:version="0.92.0 r15299"
   sodipodi:docname="CGTN.svg">
  <defs
     id="defs96833">
    <clipPath
       clipPathUnits="userSpaceOnUse"
       id="clipPath81308">
      <path
         d="m 898.018,105.421 h 23.81 v 6.576 h -23.81 z"
         id="path81306"
         inkscape:connector-curvature="0" />
    </clipPath>
  </defs>
  <sodipodi:namedview
     id="base"
     pagecolor="#ffffff"
     bordercolor="#666666"
     borderopacity="1.0"
     inkscape:pageopacity="0.0"
     inkscape:pageshadow="2"
     inkscape:zoom="22.4"
     inkscape:cx="9.6281414"
     inkscape:cy="5.4047979"
     inkscape:document-units="mm"
     inkscape:current-layer="layer1"
     showgrid="false"
     fit-margin-top="0"
     fit-margin-left="0"
     fit-margin-right="0"
     fit-margin-bottom="0"
     inkscape:window-width="1920"
     inkscape:window-height="1017"
     inkscape:window-x="-8"
     inkscape:window-y="-8"
     inkscape:window-maximized="1" />
  <metadata
     id="metadata96836">
    <rdf:RDF>
      <cc:Work
         rdf:about="">
        <dc:format>image/svg+xml</dc:format>
        <dc:type
           rdf:resource="http://purl.org/dc/dcmitype/StillImage" />
        <dc:title />
      </cc:Work>
    </rdf:RDF>
  </metadata>
  <g
     inkscape:label="Layer 1"
     inkscape:groupmode="layer"
     id="layer1"
     transform="translate(135.67858,4.9720075)">
    <g
       transform="matrix(0.35277777,0,0,-0.35277777,-452.53641,34.480965)"
       id="g81302"
       style="fill:#bead61;fill-opacity:1">
      <g
         id="g81304"
         clip-path="url(#clipPath81308)"
         style="fill:#bead61;fill-opacity:1">
        <g
           id="g81310"
           transform="translate(920.2828,111.7602)"
           style="fill:#bead61;fill-opacity:1">
          <path
             d="m 0,0 v -3.782 l -3.159,3.711 C -3.198,-0.026 -3.254,0 -3.314,0 h -1.092 v -6.103 h 1.381 v 3.845 l 3.18,-3.774 C 0.193,-6.077 0.249,-6.103 0.307,-6.103 H 1.384 V 0 Z"
             style="fill:#bead61;fill-opacity:1;fill-rule:nonzero;stroke:none"
             id="path81312"
             inkscape:connector-curvature="0" />
        </g>
        <g
           id="g81314"
           transform="translate(902.4497,106.9855)"
           style="fill:#bead61;fill-opacity:1">
          <path
             d="m 0,0 c -0.268,-0.086 -0.554,-0.13 -0.85,-0.13 -0.383,0 -0.731,0.079 -1.035,0.235 -0.298,0.153 -0.533,0.373 -0.697,0.653 -0.165,0.282 -0.248,0.606 -0.248,0.963 0,0.349 0.084,0.671 0.25,0.955 0.166,0.283 0.401,0.506 0.7,0.662 0.304,0.158 0.65,0.238 1.03,0.238 0.307,0 0.606,-0.044 0.889,-0.13 C 0.222,3.389 0.41,3.312 0.618,3.21 0.631,3.203 0.627,3.205 0.641,3.198 L 1.206,4.298 1.122,4.34 C 0.754,4.524 0.406,4.656 0.086,4.733 -0.234,4.81 -0.566,4.849 -0.899,4.849 -1.532,4.849 -2.111,4.717 -2.618,4.455 -3.13,4.192 -3.538,3.811 -3.83,3.324 -4.122,2.837 -4.27,2.281 -4.27,1.671 c 0,-0.57 0.144,-1.103 0.427,-1.583 0.285,-0.48 0.681,-0.854 1.178,-1.109 0.492,-0.254 1.057,-0.382 1.68,-0.382 0.425,0 0.803,0.044 1.124,0.13 0.319,0.085 0.673,0.23 1.052,0.431 L 1.258,-0.806 0.835,0.369 C 0.508,0.198 0.226,0.072 0,0"
             style="fill:#bead61;fill-opacity:1;fill-rule:nonzero;stroke:none"
             id="path81316"
             inkscape:connector-curvature="0" />
        </g>
        <g
           id="g81318"
           transform="translate(909.5425,108.7562)"
           style="fill:#bead61;fill-opacity:1">
          <path
             d="M 0,0 -0.926,-0.001 V 0 h -0.326 v -0.225 0 -1.45 C -1.466,-1.778 -1.664,-1.833 -1.79,-1.858 -1.938,-1.886 -2.097,-1.9 -2.262,-1.9 c -0.592,0 -1.073,0.168 -1.43,0.501 -0.359,0.334 -0.533,0.764 -0.533,1.316 0,0.361 0.083,0.692 0.247,0.984 0.163,0.289 0.395,0.514 0.691,0.668 0.301,0.157 0.652,0.236 1.042,0.236 0.529,0 1.072,-0.12 1.62,-0.354 l 0.563,1.1 -0.081,0.037 C -0.85,2.913 -1.574,3.079 -2.294,3.079 -2.922,3.079 -3.5,2.945 -4.013,2.68 -4.53,2.414 -4.939,2.035 -5.229,1.553 -5.518,1.072 -5.665,0.527 -5.665,-0.066 c 0,-0.585 0.145,-1.123 0.432,-1.599 0.287,-0.476 0.692,-0.851 1.203,-1.114 0.508,-0.262 1.081,-0.395 1.703,-0.395 0.437,0 0.863,0.059 1.267,0.174 0.408,0.116 0.763,0.281 1.056,0.489 l 0.064,0.046 v 2.404 C 0.06,-0.027 0.033,0 0,0"
             style="fill:#bead61;fill-opacity:1;fill-rule:nonzero;stroke:none"
             id="path81320"
             inkscape:connector-curvature="0" />
        </g>
        <g
           id="g81322"
           transform="translate(914.8377,111.7602)"
           style="fill:#bead61;fill-opacity:1">
          <path
             d="m 0,0 h -4.921 v -1.182 h 1.987 v -4.921 h 1.426 v 4.921 h 1.946 v 0.792 0.329 L 0.438,0 H 0.377 Z"
             style="fill:#bead61;fill-opacity:1;fill-rule:nonzero;stroke:none"
             id="path81324"
             inkscape:connector-curvature="0" />
        </g>
      </g>
    </g>
  </g>
</svg>
